assets/mouse-wheel.svg

<svg xmlns="http://www.w3.org/2000/svg" width="750" height="750"><path d="M322 152.428c-13.554 1.941-26.723 5.721-39 11.82-10.463 5.197-20.529 11.695-29 19.791-10.594 10.126-19.688 21.035-26.691 33.961C206.953 255.571 213 300.85 213 342v74c0 24.316-.313 47.38 6.427 71C240.906 562.268 319.688 609.529 396 598.572a160.441 160.441 0 0 0 49-15.325c13.357-6.679 26.162-14.927 37-25.286 22.324-21.339 39.03-47.841 46.525-77.961 5.111-20.54 4.475-41.01 4.475-62V291c0-8.883.77-18.174-.286-27-2.778-23.231-11.232-45.499-25.729-64-20.531-26.203-50.906-43.651-83.985-47.714-15.907-1.953-32.973-.286-49-.286-16.927 0-35.242-1.971-52 .428z" fill="#ccc"/><path d="M335 173.424c-13.605 1.787-26.379 3.399-39 9.357-9.838 4.644-18.782 10.347-27 17.508C224.863 238.753 235 299 235 351v70c0 16.432-.828 32.863 2.887 49C253.988 539.922 321.282 585.741 392 576.714c15.057-1.921 29.479-6.69 43-13.467 11.212-5.62 21.891-12.54 30.985-21.222 18.112-17.292 32.093-37.862 39.294-62.025 6.293-21.114 5.721-42.22 5.721-64v-76c0-21.497 2.906-43.548.83-65-2.553-26.384-11.839-50.371-30-69.985C453.516 174.435 414.583 173 376 173c-13.437 0-27.673-1.326-41 .424z" fill="#111"/><path d="M347.015 237.742c-5.785 2.282-6.006 7.927-6.015 13.258v71c0 5.076-1.289 12.324 1.318 16.895 2.674 4.69 7.855 5.079 12.682 5.104 9.666.051 19.334.001 29 .001 4.693 0 10.579.915 14.957-1.09 5.789-2.651 6.034-8.341 6.043-13.91v-71c0-4.826 1.167-11.557-1.179-15.956-2.667-5-7.854-5.036-12.821-5.044h-30c-4.337 0-9.876-.878-13.985.742z" fill="#ccc"/></svg>

<?xml version="1.0" standalone="yes"?>
<svg xmlns="http://www.w3.org/2000/svg" width="750" height="750">
<path style="fill:#ccc; stroke:none;" d="M322 152.428C308.446 154.369 295.277 158.149 283 164.248C272.537 169.445 262.471 175.943 254 184.039C243.406 194.165 234.312 205.074 227.309 218C206.953 255.571 213 300.85 213 342L213 416C213 440.316 212.687 463.38 219.427 487C240.906 562.268 319.688 609.529 396 598.572C413.08 596.119 429.586 590.954 445 583.247C458.357 576.568 471.162 568.32 482 557.961C504.324 536.622 521.03 510.12 528.525 480C533.636 459.46 533 438.99 533 418L533 342L533 291C533 282.117 533.77 272.826 532.714 264C529.936 240.769 521.482 218.501 506.985 200C486.454 173.797 456.079 156.349 423 152.286C407.093 150.333 390.027 152 374 152C357.073 152 338.758 150.029 322 152.428z"/>
<path style="fill:#111; stroke:none;" d="M335 173.424C321.395 175.211 308.621 176.823 296 182.781C286.162 187.425 277.218 193.128 269 200.289C224.863 238.753 235 299 235 351L235 421C235 437.432 234.172 453.863 237.887 470C253.988 539.922 321.282 585.741 392 576.714C407.057 574.793 421.479 570.024 435 563.247C446.212 557.627 456.891 550.707 465.985 542.025C484.097 524.733 498.078 504.163 505.279 480C511.572 458.886 511 437.78 511 416L511 340C511 318.503 513.906 296.452 511.83 275C509.277 248.616 499.991 224.629 481.83 205.015C453.516 174.435 414.583 173 376 173C362.563 173 348.327 171.674 335 173.424z"/>
<path style="fill:#ccc; stroke:none;" d="M347.015 237.742C341.23 240.024 341.009 245.669 341 251L341 285L341 322C341 327.076 339.711 334.324 342.318 338.895C344.992 343.585 350.173 343.974 355 343.999C364.666 344.05 374.334 344 384 344C388.693 344 394.579 344.915 398.957 342.91C404.746 340.259 404.991 334.569 405 329L405 294L405 258C405 253.174 406.167 246.443 403.821 242.044C401.154 237.044 395.967 237.008 391 237L361 237C356.663 237 351.124 236.122 347.015 237.742z"/>
</svg>
